/* XPM */
static char *wall[] = {
"64 64 6 1",
"a c #704848",
"b c #7B5050",
"c c #865858",
"d c #916060",
"e c #9C6868",
"f c #A77070",
"bbbccccccccccccbcccccccccccdddddeeeeeeedddddddddbbbccccccccccccb",
"bccccccccccccbbbcccccccccdddddddeeeeedddddddddddbccccccccccccbbb",
"cccccccccccbbbbbcccccccdddddddddeeeddddddddddddecccccccccccbbbbb",
"cccccccccbbbbbbbcccccdddddddddddeddddddddddddeeecccccccccbbbbbbb",
"cccccccbbbbbbbbbcccddddddddddddcdddddddddddeeeeecccccccbbbbbbbbb",
"cccccbbbbbbbbbbbcddddddddddddcccdddddddddeeeeeeecccccbbbbbbbbbbb",
"cccbbbbbbbbbbbbcdddddddddddcccccdddddddeeeeeeeeecccbbbbbbbbbbbbc",
"cbbbbbbbbbbbbcccdddddddddcccccccdddddeeeeeeeeeeecbbbbbbbbbbbbccc",
"bbbbbbbbbbbcccccdddddddcccccccccdddeeeeeeeeeeeedbbbbbbbbbbbccccc",
"bbbbbbbbbcccccccdddddcccccccccccdeeeeeeeeeeeedddbbbbbbbbbccccccc",
"bbbbbbbcccccccccdddccccccccccccdeeeeeeeeeeedddddbbbbbbbccccccccc",
"bbbbbcccccccccccdccccccccccccdddeeeeeeeeedddddddbbbbbccccccccccc",
"bbbccccccccccccbcccccccccccdddddeeeeeeedddddddddbbbccccccccccccb",
"bccccccccccccbbbcccccccccdddddddeeeeedddddddddddbccccccccccccbbb",
"cccccccccccbbbbbcccccccdddddddddeeeddddddddddddecccccccccccbbbbb",
"cccccccccbbbbbbbcccccdddddddddddeddddddddddddeeecccccccccbbbbbbb",
"dddddddcccccccccdddeeeeeeeeeeeedbbbbbbbbbbbcccccdddddddccccccccc",
"dddddcccccccccccdeeeeeeeeeeeedddbbbbbbbbbcccccccdddddccccccccccc",
"dddccccccccccccdeeeeeeeeeeedddddbbbbbbbcccccccccdddccccccccccccd",
"dccccccccccccdddeeeeeeeeedddddddbbbbbcccccccccccdccccccccccccddd",
"cccccccccccdddddeeeeeeedddddddddbbbccccccccccccbcccccccccccddddd",
"cccccccccdddddddeeeeedddddddddddbccccccccccccbbbcccccccccddddddd",
"cccccccdddddddddeeeddddddddddddecccccccccccbbbbbcccccccddddddddd",
"cccccdddddddddddeddddddddddddeeecccccccccbbbbbbbcccccddddddddddd",
"cccddddddddddddcdddddddddddeeeeecccccccbbbbbbbbbcccddddddddddddc",
"cddddddddddddcccdddddddddeeeeeeecccccbbbbbbbbbbbcddddddddddddccc",
"dddddddddddcccccdddddddeeeeeeeeecccbbbbbbbbbbbbcdddddddddddccccc",
"dddddddddcccccccdddddeeeeeeeeeeecbbbbbbbbbbbbcccdddddddddccccccc",
"dddddddcccccccccdddeeeeeeeeeeeedbbbbbbbbbbbcccccdddddddccccccccc",
"dddddcccccccccccdeeeeeeeeeeeedddbbbbbbbbbcccccccdddddccccccccccc",
"dddccccccccccccdeeeeeeeeeeedddddbbbbbbbcccccccccdddccccccccccccd",
"dccccccccccccdddeeeeeeeeedddddddbbbbbcccccccccccdccccccccccccddd",
"dddddddddddeeeeecccccccbbbbbbbbbcccddddddddddddcdddddddddddeeeee",
"dddddddddeeeeeeecccccbbbbbbbbbbbcddddddddddddcccdddddddddeeeeeee",
"dddddddeeeeeeeeecccbbbbbbbbbbbbcdddddddddddcccccdddddddeeeeeeeee",
"dddddeeeeeeeeeeecbbbbbbbbbbbbcccdddddddddcccccccdddddeeeeeeeeeee",
"dddeeeeeeeeeeeedbbbbbbbbbbbcccccdddddddcccccccccdddeeeeeeeeeeeed",
"deeeeeeeeeeeedddbbbbbbbbbcccccccdddddcccccccccccdeeeeeeeeeeeeddd",
"eeeeeeeeeeedddddbbbbbbbcccccccccdddccccccccccccdeeeeeeeeeeeddddd",
"eeeeeeeeedddddddbbbbbcccccccccccdccccccccccccdddeeeeeeeeeddddddd",
"eeeeeeedddddddddbbbccccccccccccbcccccccccccdddddeeeeeeeddddddddd",
"eeeeedddddddddddbccccccccccccbbbcccccccccdddddddeeeeeddddddddddd",
"eeeddddddddddddecccccccccccbbbbbcccccccdddddddddeeedddddddddddde",
"eddddddddddddeeecccccccccbbbbbbbcccccdddddddddddeddddddddddddeee",
"dddddddddddeeeeecccccccbbbbbbbbbcccddddddddddddcdddddddddddeeeee",
"dddddddddeeeeeeecccccbbbbbbbbbbbcddddddddddddcccdddddddddeeeeeee",
"dddddddeeeeeeeeecccbbbbbbbbbbbbcdddddddddddcccccdddddddeeeeeeeee",
"dddddeeeeeeeeeeecbbbbbbbbbbbbcccdddddddddcccccccdddddeeeeeeeeeee",
"bbbccccccccccccbcccccccccccdddddeeeeeeedddddddddbbbccccccccccccb",
"bccccccccccccbbbcccccccccdddddddeeeeedddddddddddbccccccccccccbbb",
"cccccccccccbbbbbcccccccdddddddddeeeddddddddddddecccccccccccbbbbb",
"cccccccccbbbbbbbcccccdddddddddddeddddddddddddeeecccccccccbbbbbbb",
"cccccccbbbbbbbbbcccddddddddddddcdddddddddddeeeeecccccccbbbbbbbbb",
"cccccbbbbbbbbbbbcddddddddddddcccdddddddddeeeeeeecccccbbbbbbbbbbb",
"cccbbbbbbbbbbbbcdddddddddddcccccdddddddeeeeeeeeecccbbbbbbbbbbbbc",
"cbbbbbbbbbbbbcccdddddddddcccccccdddddeeeeeeeeeeecbbbbbbbbbbbbccc",
"bbbbbbbbbbbcccccdddddddcccccccccdddeeeeeeeeeeeedbbbbbbbbbbbccccc",
"bbbbbbbbbcccccccdddddcccccccccccdeeeeeeeeeeeedddbbbbbbbbbccccccc",
"bbbbbbbcccccccccdddccccccccccccdeeeeeeeeeeedddddbbbbbbbccccccccc",
"bbbbbcccccccccccdccccccccccccdddeeeeeeeeedddddddbbbbbccccccccccc",
"bbbccccccccccccbcccccccccccdddddeeeeeeedddddddddbbbccccccccccccb",
"bccccccccccccbbbcccccccccdddddddeeeeedddddddddddbccccccccccccbbb",
"cccccccccccbbbbbcccccccdddddddddeeeddddddddddddecccccccccccbbbbb",
"cccccccccbbbbbbbcccccdddddddddddeddddddddddddeeecccccccccbbbbbbb"
};
