/* XPM */
static char *wall[] = {
"64 64 6 1",
"a c #405866",
"b c #496572",
"c c #526F7C",
"d c #5B7985",
"e c #64838E",
"f c #6D8D97",
"ccccccccccccbbbbccccccccddddddddeeeeddddddddddddccccccccccccbbbb",
"ccccccccccbbbbbbccccccddddddddddeeddddddddddddeeccccccccccbbbbbb",
"ccccccccbbbbbbbbccccddddddddddddddddddddddddeeeeccccccccbbbbbbbb",
"ccccccbbbbbbbbbbccddddddddddddccddddddddddeeeeeeccccccbbbbbbbbbb",
"ccccbbbbbbbbbbbbddddddddddddccccddddddddeeeeeeeeccccbbbbbbbbbbbb",
"ccbbbbbbbbbbbbccddddddddddccccccddddddeeeeeeeeeeccbbbbbbbbbbbbcc",
"bbbbbbbbbbbbccccddddddddccccccccddddeeeeeeeeeeeebbbbbbbbbbbbcccc",
"bbbbbbbbbbccccccddddddccccccccccddeeeeeeeeeeeeddbbbbbbbbbbcccccc",
"bbbbbbbbccccccccddddcccccccccccceeeeeeeeeeeeddddbbbbbbbbcccccccc",
"bbbbbbccccccccccddccccccccccccddeeeeeeeeeeddddddbbbbbbcccccccccc",
"bbbbccccccccccccccccccccccccddddeeeeeeeeddddddddbbbbcccccccccccc",
"bbccccccccccccbbccccccccccddddddeeeeeeddddddddddbbccccccccccccbb",
"ccccccccccccbbbbccccccccddddddddeeeeddddddddddddccccccccccccbbbb",
"ccccccccccbbbbbbccccccddddddddddeeddddddddddddeeccccccccccbbbbbb",
"ccccccccbbbbbbbbccccddddddddddddddddddddddddeeeeccccccccbbbbbbbb",
"ccccccbbbbbbbbbbccddddddddddddccddddddddddeeeeeeccccccbbbbbbbbbb",
"ddddcccccccccccceeeeeeeeeeeeddddbbbbbbbbccccccccddddcccccccccccc",
"ddccccccccccccddeeeeeeeeeeddddddbbbbbbccccccccccddccccccccccccdd",
"ccccccccccccddddeeeeeeeeddddddddbbbbccccccccccccccccccccccccdddd",
"ccccccccccddddddeeeeeeddddddddddbbccccccccccccbbccccccccccdddddd",
"ccccccccddddddddeeeeddddddddddddccccccccccccbbbbccccccccdddddddd",
"ccccccddddddddddeeddddddddddddeeccccccccccbbbbbbccccccdddddddddd",
"ccccddddddddddddddddddddddddeeeeccccccccbbbbbbbbccccdddddddddddd",
"ccddddddddddddccddddddddddeeeeeeccccccbbbbbbbbbbccddddddddddddcc",
"ddddddddddddccccddddddddeeeeeeeeccccbbbbbbbbbbbbddddddddddddcccc",
"ddddddddddccccccddddddeeeeeeeeeeccbbbbbbbbbbbbccddddddddddcccccc",
"ddddddddccccccccddddeeeeeeeeeeeebbbbbbbbbbbbccccddddddddcccccccc",
"ddddddccccccccccddeeeeeeeeeeeeddbbbbbbbbbbccccccddddddcccccccccc",
"ddddcccccccccccceeeeeeeeeeeeddddbbbbbbbbccccccccddddcccccccccccc",
"ddccccccccccccddeeeeeeeeeeddddddbbbbbbccccccccccddccccccccccccdd",
"ccccccccccccddddeeeeeeeeddddddddbbbbccccccccccccccccccccccccdddd",
"ccccccccccddddddeeeeeeddddddddddbbccccccccccccbbccccccccccdddddd",
"ddddddddeeeeeeeeccccbbbbbbbbbbbbddddddddddddccccddddddddeeeeeeee",
"ddddddeeeeeeeeeeccbbbbbbbbbbbbccddddddddddccccccddddddeeeeeeeeee",
"ddddeeeeeeeeeeeebbbbbbbbbbbbccccddddddddccccccccddddeeeeeeeeeeee",
"ddeeeeeeeeeeeeddbbbbbbbbbbccccccddddddccccccccccddeeeeeeeeeeeedd",
"eeeeeeeeeeeeddddbbbbbbbbccccccccddddcccccccccccceeeeeeeeeeeedddd",
"eeeeeeeeeeddddddbbbbbbccccccccccddccccccccccccddeeeeeeeeeedddddd",
"eeeeeeeeddddddddbbbbccccccccccccccccccccccccddddeeeeeeeedddddddd",
"eeeeeeddddddddddbbccccccccccccbbccccccccccddddddeeeeeedddddddddd",
"eeeeddddddddddddccccccccccccbbbbccccccccddddddddeeeedddddddddddd",
"eeddddddddddddeeccccccccccbbbbbbccccccddddddddddeeddddddddddddee",
"ddddddddddddeeeeccccccccbbbbbbbbccccddddddddddddddddddddddddeeee",
"ddddddddddeeeeeeccccccbbbbbbbbbbccddddddddddddccddddddddddeeeeee",
"ddddddddeeeeeeeeccccbbbbbbbbbbbbddddddddddddccccddddddddeeeeeeee",
"ddddddeeeeeeeeeeccbbbbbbbbbbbbccddddddddddccccccddddddeeeeeeeeee",
"ddddeeeeeeeeeeeebbbbbbbbbbbbccccddddddddccccccccddddeeeeeeeeeeee",
"ddeeeeeeeeeeeeddbbbbbbbbbbccccccddddddccccccccccddeeeeeeeeeeeedd",
"ccccccccccccbbbbccccccccddddddddeeeeddddddddddddccccccccccccbbbb",
"ccccccccccbbbbbbccccccddddddddddeeddddddddddddeeccccccccccbbbbbb",
"ccccccccbbbbbbbbccccddddddddddddddddddddddddeeeeccccccccbbbbbbbb",
"ccccccbbbbbbbbbbccddddddddddddccddddddddddeeeeeeccccccbbbbbbbbbb",
"ccccbbbbbbbbbbbbddddddddddddccccddddddddeeeeeeeeccccbbbbbbbbbbbb",
"ccbbbbbbbbbbbbccddddddddddccccccddddddeeeeeeeeeeccbbbbbbbbbbbbcc",
"bbbbbbbbbbbbccccddddddddccccccccddddeeeeeeeeeeeebbbbbbbbbbbbcccc",
"bbbbbbbbbbccccccddddddccccccccccddeeeeeeeeeeeeddbbbbbbbbbbcccccc",
"bbbbbbbbccccccccddddcccccccccccceeeeeeeeeeeeddddbbbbbbbbcccccccc",
"bbbbbbccccccccccddccccccccccccddeeeeeeeeeeddddddbbbbbbcccccccccc",
"bbbbccccccccccccccccccccccccddddeeeeeeeeddddddddbbbbcccccccccccc",
"bbccccccccccccbbccccccccccddddddeeeeeeddddddddddbbccccccccccccbb",
"ccccccccccccbbbbccccccccddddddddeeeeddddddddddddccccccccccccbbbb",
"ccccccccccbbbbbbccccccddddddddddeeddddddddddddeeccccccccccbbbbbb",
"ccccccccbbbbbbbbccccddddddddddddddddddddddddeeeeccccccccbbbbbbbb",
"ccccccbbbbbbbbbbccddddddddddddccddddddddddeeeeeeccccccbbbbbbbbbb"
};
