/* XPM */
static char *wall[] = {
"64 64 6 1",
"a c #72543F",
"b c #7D5D46",
"c c #88664D",
"d c #936F55",
"e c #9E785D",
"f c #A98265",
"dddddcccccccccccdeeeeeeeeeeeedddbbbbbbbbbcccccccdddddccccccccccc",
"dddccccccccccccdeeeeeeeeeeedddddbbbbbbbcccccccccdddccccccccccccd",
"dccccccccccccdddeeeeeeeeedddddddbbbbbcccccccccccdccccccccccccddd",
"cccccccccccdddddeeeeeeedddddddddbbbccccccccccccbcccccccccccddddd",
"cccccccccdddddddeeeeedddddddddddbccccccccccccbbbcccccccccddddddd",
"cccccccdddddddddeeeddddddddddddecccccccccccbbbbbcccccccddddddddd",
"cccccdddddddddddeddddddddddddeeecccccccccbbbbbbbcccccddddddddddd",
"cccddddddddddddcdddddddddddeeeeecccccccbbbbbbbbbcccddddddddddddc",
"cddddddddddddcccdddddddddeeeeeeecccccbbbbbbbbbbbcddddddddddddccc",
"dddddddddddcccccdddddddeeeeeeeeecccbbbbbbbbbbbbcdddddddddddccccc",
"dddddddddcccccccdddddeeeeeeeeeeecbbbbbbbbbbbbcccdddddddddccccccc",
"dddddddcccccccccdddeeeeeeeeeeeedbbbbbbbbbbbcccccdddddddccccccccc",
"dddddcccccccccccdeeeeeeeeeeeedddbbbbbbbbbcccccccdddddccccccccccc",
"dddccccccccccccdeeeeeeeeeeedddddbbbbbbbcccccccccdddccccccccccccd",
"dccccccccccccdddeeeeeeeeedddddddbbbbbcccccccccccdccccccccccccddd",
"cccccccccccdddddeeeeeeedddddddddbbbccccccccccccbcccccccccccddddd",
"dddddddddeeeeeeecccccbbbbbbbbbbbcddddddddddddcccdddddddddeeeeeee",
"dddddddeeeeeeeeecccbbbbbbbbbbbbcdddddddddddcccccdddddddeeeeeeeee",
"dddddeeeeeeeeeeecbbbbbbbbbbbbcccdddddddddcccccccdddddeeeeeeeeeee",
"dddeeeeeeeeeeeedbbbbbbbbbbbcccccdddddddcccccccccdddeeeeeeeeeeeed",
"deeeeeeeeeeeedddbbbbbbbbbcccccccdddddcccccccccccdeeeeeeeeeeeeddd",
"eeeeeeeeeeedddddbbbbbbbcccccccccdddccccccccccccdeeeeeeeeeeeddddd",
"eeeeeeeeedddddddbbbbbcccccccccccdccccccccccccdddeeeeeeeeeddddddd",
"eeeeeeedddddddddbbbccccccccccccbcccccccccccdddddeeeeeeeddddddddd",
"eeeeedddddddddddbccccccccccccbbbcccccccccdddddddeeeeeddddddddddd",
"eeeddddddddddddecccccccccccbbbbbcccccccdddddddddeeedddddddddddde",
"eddddddddddddeeecccccccccbbbbbbbcccccdddddddddddeddddddddddddeee",
"dddddddddddeeeeecccccccbbbbbbbbbcccddddddddddddcdddddddddddeeeee",
"dddddddddeeeeeeecccccbbbbbbbbbbbcddddddddddddcccdddddddddeeeeeee",
"dddddddeeeeeeeeecccbbbbbbbbbbbbcdddddddddddcccccdddddddeeeeeeeee",
"dddddeeeeeeeeeeecbbbbbbbbbbbbcccdddddddddcccccccdddddeeeeeeeeeee",
"dddeeeeeeeeeeeedbbbbbbbbbbbcccccdddddddcccccccccdddeeeeeeeeeeeed",
"bccccccccccccbbbcccccccccdddddddeeeeedddddddddddbccccccccccccbbb",
"cccccccccccbbbbbcccccccdddddddddeeeddddddddddddecccccccccccbbbbb",
"cccccccccbbbbbbbcccccdddddddddddeddddddddddddeeecccccccccbbbbbbb",
"cccccccbbbbbbbbbcccddddddddddddcdddddddddddeeeeecccccccbbbbbbbbb",
"cccccbbbbbbbbbbbcddddddddddddcccdddddddddeeeeeeecccccbbbbbbbbbbb",
"cccbbbbbbbbbbbbcdddddddddddcccccdddddddeeeeeeeeecccbbbbbbbbbbbbc",
"cbbbbbbbbbbbbcccdddddddddcccccccdddddeeeeeeeeeeecbbbbbbbbbbbbccc",
"bbbbbbbbbbbcccccdddddddcccccccccdddeeeeeeeeeeeedbbbbbbbbbbbccccc",
"bbbbbbbbbcccccccdddddcccccccccccdeeeeeeeeeeeedddbbbbbbbbbccccccc",
"bbbbbbbcccccccccdddccccccccccccdeeeeeeeeeeedddddbbbbbbbccccccccc",
"bbbbbcccccccccccdccccccccccccdddeeeeeeeeedddddddbbbbbccccccccccc",
"bbbccccccccccccbcccccccccccdddddeeeeeeedddddddddbbbccccccccccccb",
"bccccccccccccbbbcccccccccdddddddeeeeedddddddddddbccccccccccccbbb",
"cccccccccccbbbbbcccccccdddddddddeeeddddddddddddecccccccccccbbbbb",
"cccccccccbbbbbbbcccccdddddddddddeddddddddddddeeecccccccccbbbbbbb",
"cccccccbbbbbbbbbcccddddddddddddcdddddddddddeeeeecccccccbbbbbbbbb",
"dddddcccccccccccdeeeeeeeeeeeedddbbbbbbbbbcccccccdddddccccccccccc",
"dddccccccccccccdeeeeeeeeeeedddddbbbbbbbcccccccccdddccccccccccccd",
"dccccccccccccdddeeeeeeeeedddddddbbbbbcccccccccccdccccccccccccddd",
"cccccccccccdddddeeeeeeedddddddddbbbccccccccccccbcccccccccccddddd",
"cccccccccdddddddeeeeedddddddddddbccccccccccccbbbcccccccccddddddd",
"cccccccdddddddddeeeddddddddddddecccccccccccbbbbbcccccccddddddddd",
"cccccdddddddddddeddddddddddddeeecccccccccbbbbbbbcccccddddddddddd",
"cccddddddddddddcdddddddddddeeeeecccccccbbbbbbbbbcccddddddddddddc",
"cddddddddddddcccdddddddddeeeeeeecccccbbbbbbbbbbbcddddddddddddccc",
"dddddddddddcccccdddddddeeeeeeeeecccbbbbbbbbbbbbcdddddddddddccccc",
"dddddddddcccccccdddddeeeeeeeeeeecbbbbbbbbbbbbcccdddddddddccccccc",
"dddddddcccccccccdddeeeeeeeeeeeedbbbbbbbbbbbcccccdddddddccccccccc",
"dddddcccccccccccdeeeeeeeeeeeedddbbbbbbbbbcccccccdddddccccccccccc",
"dddccccccccccccdeeeeeeeeeeedddddbbbbbbbcccccccccdddccccccccccccd",
"dccccccccccccdddeeeeeeeeedddddddbbbbbcccccccccccdccccccccccccddd",
"cccccccccccdddddeeeeeeedddddddddbbbccccccccccccbcccccccccccddddd"
};
