/* XPM */
static char *wall[] = {
"64 64 6 1",
"a c #496653",
"b c #52715C",
"c c #5B7C65",
"d c #64876E",
"e c #6D9277",
"f c #769D80",
"ddddddddddeeeeeeccccccbbbbbbbbbbccddddddddddddccddddddddddeeeeee",
"ddddddddeeeeeeeeccccbbbbbbbbbbbbddddddddddddccccddddddddeeeeeeee",
"ddddddeeeeeeeeeeccbbbbbbbbbbbbccddddddddddccccccddddddeeeeeeeeee",
"ddddeeeeeeeeeeeebbbbbbbbbbbbccccddddddddccccccccddddeeeeeeeeeeee",
"ddeeeeeeeeeeeeddbbbbbbbbbbccccccddddddccccccccccddeeeeeeeeeeeedd",
"eeeeeeeeeeeeddddbbbbbbbbccccccccddddcccccccccccceeeeeeeeeeeedddd",
"eeeeeeeeeeddddddbbbbbbccccccccccddccccccccccccddeeeeeeeeeedddddd",
"eeeeeeeeddddddddbbbbccccccccccccccccccccccccddddeeeeeeeedddddddd",
"eeeeeeddddddddddbbccccccccccccbbccccccccccddddddeeeeeedddddddddd",
"eeeeddddddddddddccccccccccccbbbbccccccccddddddddeeeedddddddddddd",
"eeddddddddddddeeccccccccccbbbbbbccccccddddddddddeeddddddddddddee",
"ddddddddddddeeeeccccccccbbbbbbbbccccddddddddddddddddddddddddeeee",
"ddddddddddeeeeeeccccccbbbbbbbbbbccddddddddddddccddddddddddeeeeee",
"ddddddddeeeeeeeeccccbbbbbbbbbbbbddddddddddddccccddddddddeeeeeeee",
"ddddddeeeeeeeeeeccbbbbbbbbbbbbccddddddddddccccccddddddeeeeeeeeee",
"ddddeeeeeeeeeeeebbbbbbbbbbbbccccddddddddccccccccddddeeeeeeeeeeee",
"bbccccccccccccbbccccccccccddddddeeeeeeddddddddddbbccccccccccccbb",
"ccccccccccccbbbbccccccccddddddddeeeeddddddddddddccccccccccccbbbb",
"ccccccccccbbbbbbccccccddddddddddeeddddddddddddeeccccccccccbbbbbb",
"ccccccccbbbbbbbbccccddddddddddddddddddddddddeeeeccccccccbbbbbbbb",
"ccccccbbbbbbbbbbccddddddddddddccddddddddddeeeeeeccccccbbbbbbbbbb",
"ccccbbbbbbbbbbbbddddddddddddccccddddddddeeeeeeeeccccbbbbbbbbbbbb",
"ccbbbbbbbbbbbbccddddddddddccccccddddddeeeeeeeeeeccbbbbbbbbbbbbcc",
"bbbbbbbbbbbbccccddddddddccccccccddddeeeeeeeeeeeebbbbbbbbbbbbcccc",
"bbbbbbbbbbccccccddddddccccccccccddeeeeeeeeeeeeddbbbbbbbbbbcccccc",
"bbbbbbbbccccccccddddcccccccccccceeeeeeeeeeeeddddbbbbbbbbcccccccc",
"bbbbbbccccccccccddccccccccccccddeeeeeeeeeeddddddbbbbbbcccccccccc",
"bbbbccccccccccccccccccccccccddddeeeeeeeeddddddddbbbbcccccccccccc",
"bbccccccccccccbbccccccccccddddddeeeeeeddddddddddbbccccccccccccbb",
"ccccccccccccbbbbccccccccddddddddeeeeddddddddddddccccccccccccbbbb",
"ccccccccccbbbbbbccccccddddddddddeeddddddddddddeeccccccccccbbbbbb",
"ccccccccbbbbbbbbccccddddddddddddddddddddddddeeeeccccccccbbbbbbbb",
"ddddddccccccccccddeeeeeeeeeeeeddbbbbbbbbbbccccccddddddcccccccccc",
"ddddcccccccccccceeeeeeeeeeeeddddbbbbbbbbccccccccddddcccccccccccc",
"ddccccccccccccddeeeeeeeeeeddddddbbbbbbccccccccccddccccccccccccdd",
"ccccccccccccddddeeeeeeeeddddddddbbbbccccccccccccccccccccccccdddd",
"ccccccccccddddddeeeeeeddddddddddbbccccccccccccbbccccccccccdddddd",
"ccccccccddddddddeeeeddddddddddddccccccccccccbbbbccccccccdddddddd",
"ccccccddddddddddeeddddddddddddeeccccccccccbbbbbbccccccdddddddddd",
"ccccddddddddddddddddddddddddeeeeccccccccbbbbbbbbccccdddddddddddd",
"ccddddddddddddccddddddddddeeeeeeccccccbbbbbbbbbbccddddddddddddcc",
"ddddddddddddccccddddddddeeeeeeeeccccbbbbbbbbbbbbddddddddddddcccc",
"ddddddddddccccccddddddeeeeeeeeeeccbbbbbbbbbbbbccddddddddddcccccc",
"ddddddddccccccccddddeeeeeeeeeeeebbbbbbbbbbbbccccddddddddcccccccc",
"ddddddccccccccccddeeeeeeeeeeeeddbbbbbbbbbbccccccddddddcccccccccc",
"ddddcccccccccccceeeeeeeeeeeeddddbbbbbbbbccccccccddddcccccccccccc",
"ddccccccccccccddeeeeeeeeeeddddddbbbbbbccccccccccddccccccccccccdd",
"ccccccccccccddddeeeeeeeeddddddddbbbbccccccccccccccccccccccccdddd",
"ddddddddddeeeeeeccccccbbbbbbbbbbccddddddddddddccddddddddddeeeeee",
"ddddddddeeeeeeeeccccbbbbbbbbbbbbddddddddddddccccddddddddeeeeeeee",
"ddddddeeeeeeeeeeccbbbbbbbbbbbbccddddddddddccccccddddddeeeeeeeeee",
"ddddeeeeeeeeeeeebbbbbbbbbbbbccccddddddddccccccccddddeeeeeeeeeeee",
"ddeeeeeeeeeeeeddbbbbbbbbbbccccccddddddccccccccccddeeeeeeeeeeeedd",
"eeeeeeeeeeeeddddbbbbbbbbccccccccddddcccccccccccceeeeeeeeeeeedddd",
"eeeeeeeeeeddddddbbbbbbccccccccccddccccccccccccddeeeeeeeeeedddddd",
"eeeeeeeeddddddddbbbbccccccccccccccccccccccccddddeeeeeeeedddddddd",
"eeeeeeddddddddddbbccccccccccccbbccccccccccddddddeeeeeedddddddddd",
"eeeeddddddddddddccccccccccccbbbbccccccccddddddddeeeedddddddddddd",
"eeddddddddddddeeccccccccccbbbbbbccccccddddddddddeeddddddddddddee",
"ddddddddddddeeeeccccccccbbbbbbbbccccddddddddddddddddddddddddeeee",
"ddddddddddeeeeeeccccccbbbbbbbbbbccddddddddddddccddddddddddeeeeee",
"ddddddddeeeeeeeeccccbbbbbbbbbbbbddddddddddddccccddddddddeeeeeeee",
"ddddddeeeeeeeeeeccbbbbbbbbbbbbccddddddddddccccccddddddeeeeeeeeee",
"ddddeeeeeeeeeeeebbbbbbbbbbbbccccddddddddccccccccddddeeeeeeeeeeee"
};
